X: 7727
T: Colonel McBain
R: reel
M: 4/4
K: Gmajor
|:G3F GBdB|ABAG FGAc|Beed (3eee ef|fede de (3eee|
efed BcdB|ABAG FGAc|Be (3eee BedB|AGFG E2 EF:|
|:GEBE GEBE|FDAD FDAD|1 GEBE GEBE|
AFDF E2 EF:|2 G2 GF GBdB|AFDF E2 EF||

